assets/icons/standard/report.svg

<?xml version="1.0"?><svg xmlns="http://www.w3.org/2000/svg" width="100" height="100" viewBox="0 0 100 100"><path fill="#fff" d="m39 32h22c1.1 0 2-0.9 2-2v-4c0-3.3-2.7-6-6-6h-14c-3.3 0-6 2.7-6 6v4c0 1.1 0.9 2 2 2z m33-7h-2c-0.6 0-1 0.4-1 1v4c0 4.4-3.6 8-8 8h-22c-4.4 0-8-3.6-8-8v-4c0-0.6-0.4-1-1-1h-2c-3.3 0-6 2.7-6 6v43c0 3.3 2.7 6 6 6h44c3.3 0 6-2.7 6-6v-43c0-3.3-2.7-6-6-6z m-29 41c0 1.1-0.9 2-2 2h-2c-1.1 0-2-0.9-2-2v-10c0-1.1 0.9-2 2-2h2c1.1 0 2 0.9 2 2v10z m10 0c0 1.1-0.9 2-2 2h-2c-1.1 0-2-0.9-2-2v-19c0-1.1 0.9-2 2-2h2c1.1 0 2 0.9 2 2v19z m10 0c0 1.1-0.9 2-2 2h-2c-1.1 0-2-0.9-2-2v-15c0-1.1 0.9-2 2-2h2c1.1 0 2 0.9 2 2v15z"></path></svg>

<svg xmlns="http://www.w3.org/2000/svg" x="0px" y="0px" width="100" height="100"
	 viewBox="0 0 100 100" style="enable-background:new 0 0 100 100;" xml:space="preserve">

<g>
	<g>
		<path fill="#FFFFFF" d="M39,32h22c1.1,0,2-0.9,2-2v-4c0-3.3-2.7-6-6-6H43c-3.3,0-6,2.7-6,6v4C37,31.1,37.9,32,39,32z"/>
	</g>
	<g>
		<path fill="#FFFFFF" d="M72,25h-2c-0.6,0-1,0.4-1,1v4c0,4.4-3.6,8-8,8H39c-4.4,0-8-3.6-8-8v-4c0-0.6-0.4-1-1-1h-2c-3.3,0-6,2.7-6,6
			v43c0,3.3,2.7,6,6,6h44c3.3,0,6-2.7,6-6V31C78,27.7,75.3,25,72,25z M43,66c0,1.1-0.9,2-2,2h-2c-1.1,0-2-0.9-2-2V56
			c0-1.1,0.9-2,2-2h2c1.1,0,2,0.9,2,2V66z M53,66c0,1.1-0.9,2-2,2h-2c-1.1,0-2-0.9-2-2V47c0-1.1,0.9-2,2-2h2c1.1,0,2,0.9,2,2V66z
			 M63,66c0,1.1-0.9,2-2,2h-2c-1.1,0-2-0.9-2-2V51c0-1.1,0.9-2,2-2h2c1.1,0,2,0.9,2,2V66z"/>
	</g>
</g>
</svg>
